X:1
T:Thomas Tallis, 1567
T:Matthew Parker, 1567 44. 44. 44. 44.
T:Psalm 67 No copyright. Transcribed from The Whole Psalter Translated, 1567.
%%score [ 1 2 3 4 ]
L:1/8
M:4/4
K:G
V:1 treble nm="Meane" snm="M."
V:2 treble nm="Counter\nTenor" snm="C."
V:3 treble-8 nm="Tenor" snm="T."
V:4 bass nm="Bass" snm="B."
V:1
"^1. God grant with grace,  He us embrace,  In gentle part,   Bliss be our heart:   With loving face   Shine He in place,  His mercies all     On us to fall." D2 D2 D2 D2 | %1
 G2 G2 F2 G2 || G2 A2 A2 B2 | G2 G2 F2 G2 || G2 A2 A2 B2 | G2 c2 c2 B2 || B2 A2 A2 G2 | %7
 G2 c2 c2 B2 || %8
"^1.  That we Thy way  May know all day,     While we do sail   This world so frail:  Thy health’s reward  Is nigh declared,      As plain at eye         All Gentiles spy." B2 A2 A2 G2 | %9
 d2 c2 A2 B2 || B2 A2 A2 G2 | d2 c2 A2 B2 || B2 A2 A2 G2 | D2 E2 F2 G2 || %14
 B2 A2 A2 G2 D2 E2 F2 G16 |] %15
V:2
"^2. Let Thee always   The people praise, O God of bliss,       As due it is:      The people whole  Ought Thee extol, From whom all thing They see to spring." G2 A2 A2 B2 | %1
 G2 c2 A2 d2 || d2 e2 d2 d2 | d2 c2 A2 d2 || d2 f3 e d2 | d2 c2 A2 d2 || d2 f3 e d2 | %7
 d2 c2 A2 d2 || %8
"^2. All folk rejoice,      Lift up your voice,   For Thou in sight  Shalt judge them right:  Thou shalt direct  The Gentiles sect,  In earth that be           To turn to Thee.\n" g2 e2 f2 d2 | %9
 g2 e2 f2 g2 || g2 e2 f2 d2 | g2 e2 f2 g2 || g2 e2 d2 B2 | d2 c2 A2 B2 || %14
 B2 e2 d2 B3 d c2 A2 B16 |] %15
V:3
"^3. The earth shall bud  His fruits so good,  Then thanks most due  From it shall sue:  And God e’en He  Our God most free  Shall bless us aye  From day to day." G2 G2 F2 G2 | %1
 G2 A2 A2 B2 || G2 G2 F2 G2 | G2 A2 A2 B2 || G2 c2 c2 B2 | B2 A2 A2 G2 || G2 c2 c2 B2 | %7
 B2 A2 A2 G2 || %8
"^3. So God our guide   Shall bless us wide  With all increase,  No time to cease:       All folk thereby   On earth which lie    His name shall fear,   And love Him bear.\n" d2 c2 A2 B2 | %9
 B2 A2 A2 G2 || d2 c2 A2 B2 | B2 A2 A2 G2 || D2 E2 F2 G2 | B2 A2 A2 G2 || %14
 D2 E2 F2 G2 B2 A2 A2 G16 |] %15
V:4
 G,2 D,2 D,2 G,,2 | B,,2 A,,2 A,,2 G,,2 || B,,2 C,2 D,2 G,,2 | B,,2 A,,2 A,,2 G,,2 || %4
 G,2 G,2 F,2 G,2 | G,2 A,2 F,2 G,2 || G,,2 A,,2 F,,2 G,,2 | G,2 G,2 F,2 G,2 || G,2 A,2 F,2 G,2 | %9
 G,,2 C,2 D,2 G,,2 || G,2 A,2 F,2 G,2 | G,,2 C,2 D,2 G,,2 || B,,2 C,2 D,2 E,2 | %13
 B,,2 C,2 D,2 G,,2 || G,,2 C,2 D,2 E,2 G,2 C,2 D,2 G,,16 |] %15

